**kern	**kern
*staff1	*staff1
*head1[head1a]	*head1[head1a]
*solo1[solo1b]	*solo1[solo1b]
*solo1[solo1aa]	*solo1[solo1aa]
*solo1[solo1a]	*solo1[solo1a]
*solo2[solo2b]	*solo2[solo2b]
*solo2[solo2a]	*solo2[solo2a]
*clefG2	*clefG2
*k[]	*k[]
*D-:	*D-:
*M4/4	*M4/4
*>head1a	*>head1a
{8a-\L	.
16b-\L	.
16cc\JJ	.
=1	=1
4dd-\	1D-:maj
8d-/L	.
8f/J	.
4r	.
8r	.
8d-/	.
=2||	=2||
8g-/L	1D-:maj
16a-/L	.
16g-/J	.
8f/	.
8d-/J	.
8e-/L	.
8f/	.
8g-/	.
8a-/J	.
=3	=3
8f/L	1D-:maj
8A-/	.
8B-/	.
[8c/J	.
4c/]}	.
4r	.
=4	=4
2r	2F:min
4r	2B-:dom
{16b/LL	.
16g/	.
16e-/	.
16d-/JJ	.
=5	=5
[4b-\	1E-:min
16b-/LL]	.
16g-/	.
16e-/	.
16B-/JJ	.
8d-/L	.
8B-/	.
8c/	.
[8f/J	.
=6	=6
4f/]	1A-:dom
8a-/L	.
[8e-/J	.
4e-/]	.
4r	.
=7	=7
8c/L	1D-:maj
8d-/	.
8c/	.
8B-/J	.
4c/}	.
4r	.
=8	=8
4r	1E-:min
8r	.
{[8dd-\	.
8dd-\]	2A-:dom
8r	.
4cc\	.
=9	=9
8b\L	1D-:maj
8b\J	.
8r	.
8b\	.
8b-\	.
8r	.
8a/L	.
[8a-/J	.
=10||	=10||
4a-/]	1D-:maj
8r	.
8a-/	.
8g/	.
8r	.
8g-/	.
8r	.
=11	=11
8e/L	1D-:maj
16g-/L	.
16e/J	.
8e-/	.
8en/J	.
4g-/	.
8e/L	.
[8e-/J	.
=12	=12
4e-/]	2F:min
8d-/L	.
8A-/J	.
4c/	2B-:dom
8e-/L	.
[8B-/J	.
=13	=13
4B-/]}	1E-:min
4r	.
4r	.
8r	.
{24ff\LL	.
24ee-\	.
24dd-\JJ	.
=14	=14
8b-/L	1A-:dom
8g-/	.
8e-/	.
8B-/J	.
8d-/L	.
8Bn/	.
8c/	.
8a/J	.
=15	=15
8f#/L	1D-:maj
8g/	.
8a-/	.
8c/J	.
8d-/L	.
8g-/	.
8e-/	.
8en/J	.
=16	=16
8f/L	1D-:maj
8A/J	.
12B-/L	.
12d-/	.
12f/J	.
4b-\	.
*>solo1b	*>solo1b
8dd-/L	.
[8a-/J	.
=17	=17
24a-/LL]2G-:dom	.
24b-/	.
24a-/JJ	.
8g-/L	.
8e/	.
8d-/J	.
24an/LL	2G:dom
24b-/	.
24a/JJ	.
8f/L	.
8dn/	.
8B/J	.
=18||	=18||
8a-/L	1G-:dom
8d-/	.
8e-/	.
[8en/J	.
4e/]}	.
4r	.
=19	=19
4r	1C-:dom
8r	.
{16e-/LL	.
16g-/JJ	.
8dd-\L	.
8cc\	.
8b\	.
8b-\J	.
=20	=20
8a/L	1C-:dom
8d-/J}	.
4r	.
{4.a-/	.
8b\	.
=21	=21
4g-/}	1E:dom
4r	.
4r	.
8r	.
{[8d/	.
=22	=22
8d/L]	1E:dom
8e/	.
8f#/	.
8g#/J	.
4cc#\	.
8ee\L	.
[8b\J	.
=23	=23
8b\]	1A:dom
8r	.
24ff#\LL	.
24gg\	.
24ff#\JJ	.
16ee\LL	.
16dd\JJ	.
16cc#/LL	.
16d#/	.
16e/	.
16f#/J	.
8g/J}	.
8r	.
=24	=24
4r	1A-:dom
*>solo1aa	*>solo1aa
{16cc\LL	.
16dd-\	.
16ee-\	.
16cc\JJ	.
16dd-\LL	.
16cc\	.
16b-\	.
16g-\JJ	.
16d/LL	.
16B-/	.
16d-/	.
16B-/JJ	.
=25	=25
16c/LL	1D-:maj
16f/	.
16e/	.
16c/JJ	.
16a-/LL	.
16g-/	.
16e-/	.
16en/JJ	.
8.f/L	.
16A-/Jk	.
16e/LL	.
16A-/	.
16B-/	.
16e-/JJ	.
=26||	=26||
4d-/}	1D-:maj
4r	.
{16c/LL	.
16c#/	.
16e-/	.
16cn/JJ	.
16d-/LL	.
16e-/	.
16f/	.
16g-/JJ	.
=27	=27
4a-/	1D-:maj
8r	.
8f/	.
24cc\LL	.
24dd-\	.
24cc\JJ	.
8b\L	.
8b-\	.
8an\J	.
=28	=28
8a-/L	2F:min
8g-/	.
8f/	.
8e-/J	.
8d/L	2B-:dom
8b/	.
8a-/	.
8an/J	.
=29	=29
8b-/L	1E-:min
8g-/J	.
12e-/L	.
12B-/	.
12G-/J	.
4f/	.
4e-/	.
=30	=30
8r	1A-:dom
8B/	.
2c/	.
8e-/L	.
8c/J	.
=31	=31
4d-/	1D:maj
4a-;/	.
4a-;/	.
4a-;/	.
=32	=32
8a-/L	2E-:min
8g-/	.
8e-/	.
8B-/J	.
4f/	2A-:dom
4a-/}	.
=33	=33
1r	.
=34||	=34||
1r	.
=35	=35
1r	.
=36	=36
1r	.
=37	=37
1r	.
=38	=38
1r	.
=39	=39
1r	.
=40	=40
1r	.
=41	=41
1r	.
=42	=42
1r	.
=43	=43
1r	.
=44	=44
1r	.
=45	=45
1r	.
=46	=46
1r	.
=47	=47
1r	.
=48	=48
1r	.
=49	=49
1r	.
=50	=50
1r	.
=51	=51
1r	.
=52	=52
1r	.
=53	=53
1r	.
=54	=54
1r	.
=55	=55
1r	.
=56	=56
1r	.
=57	=57
1r	.
=58	=58
1r	.
=59	=59
1r	.
=60	=60
1r	.
=61	=61
1r	.
=62	=62
1r	.
=63	=63
1r	.
=64	=64
1r	.
=65	=65
1r	.
=66||	=66||
1r	.
=67	=67
1r	.
=68	=68
1r	.
=69	=69
1r	.
=70	=70
1r	.
=71	=71
1r	.
=72	=72
1r	.
=73	=73
1r	.
=74	=74
1r	.
=75	=75
1r	.
=76	=76
1r	.
=77	=77
1r	.
=78	=78
1r	.
=79	=79
1r	.
=80	=80
1r	.
=81	=81
1r	.
=82	=82
1r	.
=83	=83
1r	.
=84	=84
1r	.
=85	=85
1r	.
=86	=86
1r	.
=87	=87
1r	.
=88	=88
1r	.
=89	=89
1r	.
=90	=90
1r	.
=91	=91
1r	.
=92	=92
1r	.
=93	=93
1r	.
=94	=94
1r	.
=95	=95
1r	.
=96	=96
2r	.
4r	.
*>solo1a	*>solo1a
{8f/L	.
8g-/J	.
=97	=97
4a-/	1D-:maj
8dd-\L	.
8cc\J	.
4b-\	.
8f/L	.
8g-/J	.
=98||	=98||
4a-/	1D-:maj
8ff\L	.
8dd-\J	.
4ee-\	.
8f/L	.
8g-/J	.
=99	=99
4a-/	1D-:maj
8dd-\L	.
8cc\J	.
4b-\	.
8f/L	.
8g-/J	.
=100	=100
4a-/	2F:min
8B/L	.
8A/J	.
8B-/L	2B-:dom
8g-/	.
8d/	.
8B-/J	.
=101	=101
4f/	1E-:min
8e-/L	.
8B-/J	.
8d-/L	.
8B-/	.
8c/	.
[8a-/J	.
=102	=102
4a-/]	1A-:dom
2e-/}	.
4r	.
=103	=103
1r	1D-:maj
=104	=104
2r	1E-:min
8r	2A-:dom
{4a-/	.
8b-\	.
=105	=105
8cc\L	1D-:maj
8dd-\	.
8cc\	.
8b-\J	.
[2cc\	.
=106||	=106||
4cc\_	1D-:maj
8cc\L]	.
16b-\L	.
16a\JJ	.
8a-/L	.
8f/	.
8c/	.
8A-/J	.
=107	=107
4e-/	1D-:maj
2e-/}	.
4r	.
=108	=108
4r	2F:min
8r	.
{8d-/	.
8b/L	2B-:dom
8g/	.
8e/	.
8d-/J	.
=109	=109
4b-\	1E-:min
12g-/L	.
12e-/	.
12B-/J	.
8d\L	.
[8b-\	.
8b-\J]	.
24g-/LL	.
24d/	.
[24B-/JJ	.
=110	=110
16B-/LK]1A-:dom	.
8d/	.
16B-/Jk	.
16c/LL	.
16g-/	.
16e-/	.
16B-/JJ	.
16d-/LL	.
16B-/J	.
8c/J}	.
4r	.
=111	=111
4r	1D-:maj
8r	.
{8b\	.
24a/LL	.
24b/	.
24a/JJ	.
8g-/L	.
8gn/	.
[8a-/J	.
=112	=112
4a-/]}	1D-:maj
4r	.
4r	.
8r	.
*>solo2b	*>solo2b
{16d-/LL	.
16e/JJ	.
=113	=113
12f#\L	1F#:dom
12b\	.
12dd#\J	.
8ff#\L	.
8dd#\J	.
8ee/L	.
8g/	.
8g#/	.
8b/J	.
=114||	=114||
2dd#\	1F#:dom
4ddn\	.
8e/L	.
[8cc#/J	.
=115	=115
4cc#\]	1B:dom
8b/L	.
8f#/J	.
16g#/LK	.
[8.a/J	.
4a/]}	.
=116	=116
2r	1B:dom
4r	.
{8b\L	.
8cc#\J	.
=117	=117
8dd\L	1E:dom
8cc#\	.
8dd\	.
8cc#\J	.
8b/L	.
8a/	.
8g#/	.
8f#/J	.
=118	=118
8e/L	1E:dom
8d#/J	.
16dn/LL	.
16e/	.
16f#/	.
16a/JJ	.
4cc#\	.
8ee\L	.
[8b\J	.
=119	=119
16b/LL]	1A:dom
16d#/	.
16e/	.
16f#/JJ	.
16g/LL	.
16f#/	.
16e/	.
16dn/JJ	.
16c#/LL	.
16d/	.
16e/JJ}	.
16r	.
4r	.
=120	=120
4r	1A-:dom
8r	.
*>solo2a	*>solo2a
{16cc\LL	.
16b\JJ	.
16b-/LL	.
16g-/	.
16e-/	.
16c/JJ	.
16d-/LL	.
16B-/	.
16c/	.
[16f/JJ	.
=121	=121
16f/LL]	1D-:maj
16e-/	.
16a-/	.
16g-/JJ	.
16f/LL	.
16d-/	.
16B-/	.
16A-/JJ	.
16e-/LL	.
16c/	.
16d-/	.
16e-/JJ	.
24f/LL	.
24g-/	.
24gn/JJ	.
16an/LL	.
16g-/JJ	.
=122||	=122||
16f/LL	1D-:maj
16d-/	.
16B-/	.
16A/JJ	.
4A-/}	.
4r	.
8r	.
{8cc\	.
=123	=123
4dd-'\	1D-:maj
4a-'/	.
4a-'/	.
4a-'/	.
=124	=124
12a-/L	2F:min
12an/	.
12a-/J	.
8f/L	.
8g-/J	.
8a-/L	2B-:dom
8f/	.
8c/	.
8A-/J	.
=125	=125
8e-/L	1E-:min
8B-/	.
8e-/	.
[8B-/J	.
4B-/]}	.
4r	.
=126	=126
8r	1A-:dom
{24f/LL	.
24e-/	.
24d-/JJ	.
8B-/L	.
8d-/J	.
8c/}	.
8r	.
8r	.
{8a/	.
=127	=127
8f#/L	1D-:maj
8g/	.
8a-/	.
8c/J	.
8d-/L	.
8g-/	.
8e-/	.
8en/J	.
=128	=128
8f/L	2E-:min
8A-/	.
8B-/	.
[8e/J	.
8e/]	2A-:dom
32c/LLL	.
32B-/	.
32A-/	.
32G-/JJJ	.
4e-/}	.
==	==
*-	*-
